img/twitter.svg

<svg width="18" height="16" viewBox="0 0 18 16" fill="none" xmlns="http://www.w3.org/2000/svg">
<path d="M12.4777 1.92352C11.7957 1.9234 11.1409 2.21006 10.6542 2.72181C10.1675 3.23357 9.88783 3.92951 9.87537 4.65989L9.85024 6.17369C9.84877 6.25497 9.83127 6.33499 9.7989 6.40852C9.76652 6.48205 9.71999 6.54741 9.66237 6.60032C9.60475 6.65323 9.53734 6.6925 9.46456 6.71554C9.39177 6.73859 9.31526 6.74489 9.24004 6.73404L7.83927 6.53027C5.99611 6.26115 4.23012 5.35191 2.53592 3.84004C1.9993 7.02142 3.04741 9.22532 5.57166 10.9256L7.13934 11.9809C7.21383 12.031 7.27571 12.1 7.31957 12.1816C7.36343 12.2633 7.38794 12.3553 7.39095 12.4494C7.39396 12.5436 7.37538 12.6371 7.33684 12.7218C7.29829 12.8066 7.24096 12.8798 7.16985 12.9353L5.74126 14.0531C6.59106 14.1098 7.39778 14.0695 8.0672 13.9272C12.3009 13.0218 15.1159 9.60977 15.1159 3.98133C15.1159 3.5219 14.2078 1.92352 12.4777 1.92352ZM8.08066 4.62433C8.09632 3.69784 8.36682 2.79688 8.85827 2.03426C9.34973 1.27165 10.0403 0.681263 10.8435 0.337028C11.6468 -0.00720796 12.527 -0.0899957 13.3739 0.0990299C14.2209 0.288056 14.9969 0.740494 15.605 1.3997C16.243 1.39489 16.7859 1.5679 18 0.779762C17.6994 2.35603 17.5513 3.04037 16.9106 3.98133C16.9106 11.3264 12.6957 14.898 8.41896 15.812C5.48642 16.4387 1.22219 15.4093 0 14.0426C0.622763 13.9907 3.1533 13.6994 4.61598 12.5528C3.37853 11.6791 -1.54704 8.57462 1.68972 0.228066C3.20893 2.12824 4.74969 3.42194 6.31108 4.1082C7.35022 4.56474 7.60507 4.55513 8.08156 4.62529L8.08066 4.62433Z" fill="#163152"/>
</svg>

<svg fill="none" xmlns="http://www.w3.org/2000/svg" width="18" height="16" viewBox="0 0 18 16"><path d="M12.48 1.92c-.68 0-1.34.29-1.83.8-.48.51-.76 1.21-.77 1.94l-.03 1.51a.61.61 0 01-.19.43.5.5 0 01-.42.13l-1.4-.2a10.22 10.22 0 01-5.3-2.69c-.54 3.18.5 5.39 3.03 7.09l1.57 1.05c.07.05.14.12.18.2a.6.6 0 01-.15.76l-1.43 1.11c.85.06 1.66.02 2.33-.12 4.23-.9 7.05-4.32 7.05-9.95 0-.46-.91-2.06-2.64-2.06zm-4.4 2.7c.02-.92.29-1.82.78-2.59a4.47 4.47 0 011.98-1.7c.8-.34 1.69-.42 2.53-.23.85.19 1.63.64 2.24 1.3.63 0 1.18.17 2.39-.62-.3 1.58-.45 2.26-1.09 3.2 0 7.35-4.21 10.92-8.5 11.83-2.92.63-7.19-.4-8.41-1.77.62-.05 3.15-.34 4.62-1.49C3.38 11.68-1.55 8.57 1.69.23c1.52 1.9 3.06 3.2 4.62 3.88 1.04.45 1.3.45 1.77.52z" fill="#163152"/></svg>
